X:1
T:The Cat In The Kitchen
L:1/8
M:6/8
I:linebreak $
K:Bmin
V:1 treble 
V:1
 z F |"Bm" B2 c dcB |"Em" e2 f gfe |"Bm" fbb bag |"F#7" fgf edc |"Bm" B2 c dcB |"Em" e2 f gfe | %7
"F#7" fgf edc |$"Bm" dBB B :| AG |"Bm" F2 B ABc |"D" d2 d"A" ede |"Bm" fBB Bcd |"A" cAA BAG | %14
"Bm" F2 B"A" ABc |"G" dcd"Em" ede |$"F#7" fed cBA |"Bm" FBB B :| %18
